X: 39686
T: Tenpenny Piece, The
R: slip jig
M: 9/8
K: Gmajor
|:g3 edB edB|g3 edB d2f|gag edB edB|1 A3 ABd e2f:|2 A3 ABd edc||
|:BAB GEF GEE|B3 GEF Gdc|BAB GEF GFE|1 D3 DEF G2A:|2 D3 DEF GBd||

